www/assets/icons/nightlife.svg

<svg xmlns="http://www.w3.org/2000/svg" width="24" height="24" viewBox="0 0 24 24" fill='currentColor'><path d="M1.5 4.5h14l-6 9v4h2v2h-6v-2h2v-4zm9.1 4 1.4-2H4.99l1.4 2zm6.9-4h5v3h-3v9c0 1.66-1.34 3-3 3s-3-1.34-3-3 1.34-3 3-3a3 3 0 0 1 1 .17z"/></svg>

<svg width="24" height="24" viewBox="0 0 24 24" xmlns="http://www.w3.org/2000/svg" fill='currentColor'><path d="M1.5 4.5H15.5L9.5 13.5V17.5H11.5V19.5H5.5V17.5H7.5V13.5L1.5 4.5ZM10.6 8.5L12 6.5H4.99L6.39 8.5H10.6ZM17.5 4.5H22.5V7.5H19.5V16.5C19.5 18.16 18.16 19.5 16.5 19.5C14.84 19.5 13.5 18.16 13.5 16.5C13.5 14.84 14.84 13.5 16.5 13.5C16.85 13.5 17.19 13.56 17.5 13.67V4.5Z"/></svg>
